humanity-icon-theme/Humanity/actions/22/help-contents.svg

<?xml version="1.0" encoding="UTF-8" standalone="no"?>
<!-- Created with Inkscape (http://www.inkscape.org/) -->

<svg
   xmlns:svg="http://www.w3.org/2000/svg"
   xmlns="http://www.w3.org/2000/svg"
   xmlns:xlink="http://www.w3.org/1999/xlink"
   version="1.0"
   width="22"
   height="22"
   id="svg2">
  <defs
     id="defs4">
    <linearGradient
       id="linearGradient2490-182-124">
      <stop
         id="stop2788"
         style="stop-color:#1f4b6a;stop-opacity:1"
         offset="0" />
      <stop
         id="stop2790"
         style="stop-color:#4083c2;stop-opacity:1"
         offset="1" />
    </linearGradient>
    <linearGradient
       x1="18.379412"
       y1="44.980297"
       x2="18.379412"
       y2="3.0816143"
       id="linearGradient2412"
       xlink:href="#linearGradient2490-182-124"
       gradientUnits="userSpaceOnUse"
       gradientTransform="matrix(0.5160413,0,0,0.5160413,-1.3849489,-1.3850333)" />
    <linearGradient
       id="linearGradient3242-187-536">
      <stop
         id="stop2778"
         style="stop-color:#8badea;stop-opacity:1"
         offset="0" />
      <stop
         id="stop2780"
         style="stop-color:#6396cd;stop-opacity:1"
         offset="0.26238" />
      <stop
         id="stop2782"
         style="stop-color:#3b7caf;stop-opacity:1"
         offset="0.66093999" />
      <stop
         id="stop2784"
         style="stop-color:#194c70;stop-opacity:1"
         offset="1" />
    </linearGradient>
    <radialGradient
       cx="23.895569"
       cy="3.9900031"
       r="20.397499"
       fx="23.895569"
       fy="3.9900031"
       id="radialGradient2410"
       xlink:href="#linearGradient3242-187-536"
       gradientUnits="userSpaceOnUse"
       gradientTransform="matrix(0,1.2316137,-1.6257082,0,17.486623,-29.720825)" />
    <linearGradient
       id="linearGradient4873">
      <stop
         id="stop4875"
         style="stop-color:white;stop-opacity:1"
         offset="0" />
      <stop
         id="stop4877"
         style="stop-color:white;stop-opacity:0"
         offset="1" />
    </linearGradient>
    <linearGradient
       x1="63.397362"
       y1="-12.489107"
       x2="63.397362"
       y2="5.4675598"
       id="linearGradient2407"
       xlink:href="#linearGradient4873"
       gradientUnits="userSpaceOnUse"
       gradientTransform="matrix(1.0862728,0,0,1.0862481,-56.566568,14.813596)" />
  </defs>
  <g
     id="layer1">
    <path
       d="m 11.000044,0.50174278 c -5.7925529,0 -10.49821688,4.70566162 -10.49821688,10.49821422 0,5.792554 4.70566398,10.498219 10.49821688,10.498216 5.79255,0 10.498219,-4.705662 10.498213,-10.498216 0,-5.7925526 -4.705663,-10.49821422 -10.498213,-10.49821422 z"
       id="path2555"
       style="fill:url(#radialGradient2410);fill-opacity:1;stroke:url(#linearGradient2412);stroke-width:1.00365424;stroke-linecap:round;stroke-linejoin:round;stroke-miterlimit:4;stroke-opacity:1;stroke-dasharray:none;stroke-dashoffset:0" />
    <path
       d="m 20.500041,10.999621 c 0,5.246874 -4.253609,9.500336 -9.499879,9.500336 -5.2467525,0 -9.50012,-4.253509 -9.50012,-9.500336 0,-5.2466314 4.2533675,-9.4996625 9.50012,-9.4996625 5.24627,0 9.499879,4.2530311 9.499879,9.4996625 l 0,0 z"
       id="path2463"
       style="opacity:0.4;fill:none;stroke:url(#linearGradient2407);stroke-width:0.99999994;stroke-miterlimit:4;stroke-opacity:1;stroke-dasharray:none" />
    <path
       d="m 11.455261,13.081732 c -0.03304,-1.179381 0.231187,-2.324308 1.345435,-3.1353041 1.17693,-0.917184 2.310407,-2.0647064 2.190622,-3.4173758 C 14.965168,5.2245246 13.445198,4.2022851 11.807545,4.0553057 9.9654521,3.8001127 7.7365317,4.4311735 7.119258,5.8697764 6.8061912,6.5694642 7.096507,7.8247847 8.1471555,7.8247847 c 0.614526,0 0.8967816,-0.3969667 0.9431516,-0.7600985 C 9.1253911,6.7899292 9.0125901,6.5445738 8.9459742,6.3176225 8.8700688,6.0590261 9.1941001,5.5578397 9.5470161,5.3536366 9.8419171,5.183 10.150459,5.1257827 10.195939,5.1148521 c 1.059073,-0.2545226 2.114816,0.3076836 2.55529,0.9919565 0.440475,0.684273 -0.04435,1.7221827 -0.741427,2.7315093 -0.697074,1.009328 -1.445158,2.1557181 -1.44217,3.3733721 0,0.463561 -0.0413,0.621043 -0.01196,0.808589 0.02345,0.149843 0.519613,0.131735 0.899585,0.06145 z m -0.483327,1.587384 c -1.0126419,-0.05497 -1.7135289,1.092998 -1.1051849,1.824413 0.5432809,0.807553 2.0665129,0.608202 2.3275949,-0.306271 0.27143,-0.711121 -0.381772,-1.530013 -1.22241,-1.518143 l 0,1e-6 z"
       id="path9053"
       style="font-size:72px;font-style:normal;font-weight:bold;opacity:0.2;fill:black;fill-opacity:1;stroke:none;font-family:Standard Symbols L" />
    <path
       d="m 11.455261,14.081732 c -0.03304,-1.179381 0.231187,-2.324309 1.345435,-3.135304 1.17693,-0.917184 2.310407,-2.0647071 2.190622,-3.4173763 C 14.965163,6.2245242 13.445198,5.2022857 11.807545,5.0553054 9.9654521,4.8001123 7.7365317,5.4311731 7.119258,6.869776 6.8061912,7.5694639 7.0965071,8.8247849 8.1471555,8.8247849 c 0.614526,0 0.8967816,-0.396967 0.9431516,-0.760099 C 9.1253911,7.7899288 9.0125901,7.5445743 8.9459742,7.3176221 8.8700688,7.0590267 9.1941001,6.5578393 9.5470161,6.3536372 9.8419171,6.1829996 10.150459,6.1257833 10.195939,6.1148526 c 1.059073,-0.2545226 2.114816,0.3076828 2.55529,0.9919566 0.440475,0.6842729 -0.04435,1.7221827 -0.741427,2.7315107 -0.697074,1.0093261 -1.445158,2.1557161 -1.44217,3.3733691 0,0.463562 -0.0413,0.621044 -0.01196,0.80859 0.02345,0.149844 0.519613,0.131735 0.899585,0.06145 z m -0.483327,1.587383 c -1.0126419,-0.05497 -1.7135289,1.093 -1.1051849,1.824413 0.5432809,0.807554 2.0665129,0.608204 2.3275949,-0.306271 0.27143,-0.71112 -0.381772,-1.530012 -1.22241,-1.518142 l 0,0 z"
       id="path3298"
       style="font-size:72px;font-style:normal;font-weight:bold;fill:white;fill-opacity:1;stroke:none;font-family:Standard Symbols L" />
  </g>
</svg>

<?xml version="1.0" encoding="UTF-8" standalone="no"?>
<!-- Created with Inkscape (http://www.inkscape.org/) -->
<svg
   xmlns:svg="http://www.w3.org/2000/svg"
   xmlns="http://www.w3.org/2000/svg"
   xmlns:xlink="http://www.w3.org/1999/xlink"
   version="1.0"
   width="22"
   height="22"
   id="svg2">
  <defs
     id="defs4">
    <linearGradient
       id="linearGradient2490-182-124">
      <stop
         id="stop2788"
         style="stop-color:#1f4b6a;stop-opacity:1"
         offset="0" />
      <stop
         id="stop2790"
         style="stop-color:#4083c2;stop-opacity:1"
         offset="1" />
    </linearGradient>
    <linearGradient
       x1="18.379412"
       y1="44.980297"
       x2="18.379412"
       y2="3.0816143"
       id="linearGradient2412"
       xlink:href="#linearGradient2490-182-124"
       gradientUnits="userSpaceOnUse"
       gradientTransform="matrix(0.5160413,0,0,0.5160413,-1.3849489,-1.3850333)" />
    <linearGradient
       id="linearGradient3242-187-536">
      <stop
         id="stop2778"
         style="stop-color:#8badea;stop-opacity:1"
         offset="0" />
      <stop
         id="stop2780"
         style="stop-color:#6396cd;stop-opacity:1"
         offset="0.26238" />
      <stop
         id="stop2782"
         style="stop-color:#3b7caf;stop-opacity:1"
         offset="0.66093999" />
      <stop
         id="stop2784"
         style="stop-color:#194c70;stop-opacity:1"
         offset="1" />
    </linearGradient>
    <radialGradient
       cx="23.895569"
       cy="3.9900031"
       r="20.397499"
       fx="23.895569"
       fy="3.9900031"
       id="radialGradient2410"
       xlink:href="#linearGradient3242-187-536"
       gradientUnits="userSpaceOnUse"
       gradientTransform="matrix(0,1.2316137,-1.6257082,0,17.486623,-29.720825)" />
    <linearGradient
       id="linearGradient4873">
      <stop
         id="stop4875"
         style="stop-color:#ffffff;stop-opacity:1"
         offset="0" />
      <stop
         id="stop4877"
         style="stop-color:#ffffff;stop-opacity:0"
         offset="1" />
    </linearGradient>
    <linearGradient
       x1="63.397362"
       y1="-12.489107"
       x2="63.397362"
       y2="5.4675598"
       id="linearGradient2407"
       xlink:href="#linearGradient4873"
       gradientUnits="userSpaceOnUse"
       gradientTransform="matrix(1.0862728,0,0,1.0862481,-56.566568,14.813596)" />
  </defs>
  <g
     id="layer1">
    <path
       d="M 11.000044,0.50174278 C 5.2074911,0.50174278 0.50182712,5.2074044 0.50182712,10.999957 C 0.50182712,16.792511 5.2074911,21.498176 11.000044,21.498173 C 16.792594,21.498173 21.498263,16.792511 21.498257,10.999957 C 21.498257,5.2074044 16.792594,0.50174278 11.000044,0.50174278 z"
       id="path2555"
       style="fill:url(#radialGradient2410);fill-opacity:1;stroke:url(#linearGradient2412);stroke-width:1.00365424;stroke-linecap:round;stroke-linejoin:round;stroke-miterlimit:4;stroke-dasharray:none;stroke-dashoffset:0;stroke-opacity:1" />
    <path
       d="M 20.500041,10.999621 C 20.500041,16.246495 16.246432,20.499957 11.000162,20.499957 C 5.7534095,20.499957 1.500042,16.246448 1.500042,10.999621 C 1.500042,5.7529896 5.7534095,1.4999585 11.000162,1.4999585 C 16.246432,1.4999585 20.500041,5.7529896 20.500041,10.999621 L 20.500041,10.999621 z"
       id="path2463"
       style="opacity:0.4;fill:none;fill-opacity:1;fill-rule:nonzero;stroke:url(#linearGradient2407);stroke-width:0.99999994;stroke-miterlimit:4;stroke-dasharray:none;stroke-opacity:1" />
    <path
       d="M 11.455261,13.081732 C 11.422221,11.902351 11.686448,10.757424 12.800696,9.9464279 C 13.977626,9.0292439 15.111103,7.8817215 14.991318,6.5290521 C 14.965163,5.2245246 13.445198,4.2022851 11.807545,4.0553057 C 9.9654521,3.8001127 7.7365317,4.4311735 7.119258,5.8697764 C 6.8061912,6.5694642 7.0965071,7.8247847 8.1471555,7.8247847 C 8.7616815,7.8247847 9.0439371,7.427818 9.0903071,7.0646862 C 9.1253911,6.7899292 9.0125901,6.5445738 8.9459742,6.3176225 C 8.8700688,6.0590261 9.1941001,5.5578397 9.5470161,5.3536366 C 9.8419171,5.183 10.150459,5.1257827 10.195939,5.1148521 C 11.255012,4.8603295 12.310755,5.4225357 12.751229,6.1068086 C 13.191704,6.7910816 12.706875,7.8289913 12.009802,8.8383179 C 11.312728,9.8476459 10.564644,10.994036 10.567632,12.21169 C 10.567632,12.675251 10.526329,12.832733 10.555676,13.020279 C 10.579124,13.170122 11.075289,13.152014 11.455261,13.081732 z M 10.971934,14.669116 C 9.9592921,14.614143 9.2584051,15.762114 9.8667491,16.493529 C 10.41003,17.301082 11.933262,17.101731 12.194344,16.187258 C 12.465774,15.476137 11.812572,14.657245 10.971934,14.669115 L 10.971934,14.669116 z"
       id="path9053"
       style="font-size:72px;font-style:normal;font-weight:bold;opacity:0.2;fill:#000000;fill-opacity:1;stroke:none;stroke-width:0.75;stroke-linecap:round;stroke-linejoin:round;stroke-miterlimit:4;stroke-dasharray:none;stroke-opacity:1;font-family:Standard Symbols L" />
    <path
       d="M 11.455261,14.081732 C 11.422221,12.902351 11.686448,11.757423 12.800696,10.946428 C 13.977626,10.029244 15.111103,8.8817209 14.991318,7.5290517 C 14.965163,6.2245242 13.445198,5.2022857 11.807545,5.0553054 C 9.9654521,4.8001123 7.7365317,5.4311731 7.119258,6.869776 C 6.8061912,7.5694639 7.0965071,8.8247849 8.1471555,8.8247849 C 8.7616815,8.8247849 9.0439371,8.4278179 9.0903071,8.0646859 C 9.1253911,7.7899288 9.0125901,7.5445743 8.9459742,7.3176221 C 8.8700688,7.0590267 9.1941001,6.5578393 9.5470161,6.3536372 C 9.8419171,6.1829996 10.150459,6.1257833 10.195939,6.1148526 C 11.255012,5.86033 12.310755,6.4225354 12.751229,7.1068092 C 13.191704,7.7910821 12.706875,8.8289919 12.009802,9.8383199 C 11.312728,10.847646 10.564644,11.994036 10.567632,13.211689 C 10.567632,13.675251 10.526329,13.832733 10.555676,14.020279 C 10.579124,14.170123 11.075289,14.152014 11.455261,14.081732 z M 10.971934,15.669115 C 9.9592921,15.614143 9.2584051,16.762115 9.8667491,17.493528 C 10.41003,18.301082 11.933262,18.101732 12.194344,17.187257 C 12.465774,16.476137 11.812572,15.657245 10.971934,15.669115 L 10.971934,15.669115 z"
       id="path3298"
       style="font-size:72px;font-style:normal;font-weight:bold;fill:#ffffff;fill-opacity:1;stroke:none;stroke-width:0.75;stroke-linecap:round;stroke-linejoin:round;stroke-miterlimit:4;stroke-dasharray:none;stroke-opacity:1;font-family:Standard Symbols L" />
  </g>
</svg>
